X: 14745
T: Gan Ainm
R: reel
M: 4/4
K: Dmajor
|:fFfe e/e/dBA|dDdA {c}BAFD|A,B,DE FA,AF|{G}FEE/E/D EFAe|
fFfe e/e/dBA|dDdA {c}BAFD|A,B,DE FA,AF|1 EDCE DEFA:|2 EDCE {C}D2 z2||
|:A,B,DE F/F/F F2|=F/F/F F2 EDB,D|A,B,DE FABd|zBAF EFDB,|
A,B,DE F/F/F F2|=F/F/F F2 EDB,D|A,B,B,/B,/A, B,DA,B,|1 DEFA d2 DB,:|2 DEFA dDeD||

